!!!!SEGMENT: Gom2018-Regina_celi_letare.krn
!!!id: Gom2018
!!!AGN: Motet
!!!voices: 12
!!!COM: Nicolas Gombert
!!!OTL: Regina celi letare
**kern	**kern	**kern	**kern	**kern	**kern	**kern	**kern	**kern	**kern	**kern	**kern
*part12	*part11	*part10	*part9	*part8	*part7	*part6	*part5	*part4	*part3	*part2	*part1
*staff12	*staff11	*staff10	*staff9	*staff8	*staff7	*staff6	*staff5	*staff4	*staff3	*staff2	*staff1
*I"Bassus I	*I"Bassus II	*I"Bassus III	*I"Bassus IV	*I"Tenor III	*I"Tenor II	*I"Tenor I	*I"Altus II	*I"Altus I	*I"Superius III	*I"Superius II	*I"Superius I
*I'B. I	*I'B. II	*I'B. III	*I'B. IV	*I'T. III	*I'T. II	*I'T. I	*I'A. II	*I'A. I	*I'S. III	*I'S. II	*I'S. I
*clefF4	*clefF4	*clefF4	*clefF4	*clefGv2	*clefGv2	*clefGv2	*clefGv2	*clefGv2	*clefG2	*clefG2	*clefG2
*k[b-]	*k[b-]	*k[b-]	*k[b-]	*k[b-]	*k[b-]	*k[b-]	*k[b-]	*k[b-]	*k[b-]	*k[b-]	*k[b-]
*M2/1	*M2/1	*M2/1	*M2/1	*M2/1	*M2/1	*M2/1	*M2/1	*M2/1	*M2/1	*M2/1	*M2/1
*met(C2)	*met(C2)	*met(C2)	*met(C2)	*met(C2)	*met(C2)	*met(C2)	*met(C2)	*met(C2)	*met(C2)	*met(C2)	*met(C2)
=1	=1	=1	=1	=1	=1	=1	=1	=1	=1	=1	=1
!!section: Prima pars: Regina celi letare
!!!OMD: Prima pars: Regina celi letare
0r	[0FF	1.F	1r	1F	0r	0r	0r	0r	[0a	[0f	[0cc
.	.	.	1F	1A	.	.	.	.	.	.	.
.	.	2E	.	.	.	.	.	.	.	.	.
=2	=2	=2	=2	=2	=2	=2	=2	=2	=2	=2	=2
0r	0FF]	1C	1A	1A	1F	0r	0r	1r	0a]	0f_	0cc]
.	.	[1C	1A	1c	1A	.	.	1F	.	.	.
=3	=3	=3	=3	=3	=3	=3	=3	=3	=3	=3	=3
[0FF	1.C	2C]	1c	1A	1A	[0F	1F	1A	0a	0f]	0cc
.	.	4BB-y	.	.	.	.	.	.	.	.	.
.	.	4AA	.	.	.	.	.	.	.	.	.
.	.	1AA	1A	1r	1c	.	1A	1A	.	.	.
.	4BB-y	.	.	.	.	.	.	.	.	.	.
.	4AA	.	.	.	.	.	.	.	.	.	.
=4	=4	=4	=4	=4	=4	=4	=4	=4	=4	=4	=4
0FF]	1AA	2r	1r	1.c	0A	0F]	1A	1c	0a	0f	0cc
.	.	2C	.	.	.	.	.	.	.	.	.
.	2.AA	2.C	[1c	.	.	.	[1c	1A	.	.	.
.	.	.	.	4B-y	.	.	.	.	.	.	.
.	4BB-y	4D	.	4A	.	.	.	.	.	.	.
=5	=5	=5	=5	=5	=5	=5	=5	=5	=5	=5	=5
0C	2.C	2.E	2c]	1G	1r	0G	1c]	1r	1r	0e	[0cc
.	.	.	4B-y	.	.	.	.	.	.	.	.
.	4D	4F	4A	.	.	.	.	.	.	.	.
.	1E	2G	1G	2.c	1c	.	[1c	1c	1e	.	.
.	.	2C	.	.	.	.	.	.	.	.	.
.	.	.	.	4B-y	.	.	.	.	.	.	.
=6	=6	=6	=6	=6	=6	=6	=6	=6	=6	=6	=6
0FF	2.AA	1C	1c	2.A	1.c	0F	2c]	0c	0a	0f	0cc]
.	.	.	.	.	.	.	4B-y	.	.	.	.
.	4BB-y	.	.	4G	.	.	4A	.	.	.	.
.	2.C	2.AA	1C	2F	.	.	1A	.	.	.	.
.	.	.	.	2c	4B-y	.	.	.	.	.	.
.	4D	4BB-y	.	.	4A	.	.	.	.	.	.
=7	=7	=7	=7	=7	=7	=7	=7	=7	=7	=7	=7
0C	2.E	2C	[0C	1c	1G	0G	1r	1c	0r	0e	[0cc
.	.	2D	.	.	.	.	.	.	.	.	.
.	4F	.	.	.	.	.	.	.	.	.	.
.	2G	1E	.	[1C	[1c	.	1G	1c	.	.	.
.	2C	.	.	.	.	.	.	.	.	.	.
=8	=8	=8	=8	=8	=8	=8	=8	=8	=8	=8	=8
[0FF	1.C	1.AA	0C_	1C]	2c]	[0A	[0F	[0c	0a	[0f	0cc_
.	.	.	.	.	4B-y	.	.	.	.	.	.
.	.	.	.	.	4A	.	.	.	.	.	.
.	.	.	.	[1c	2.A	.	.	.	.	.	.
.	4BB-y	2BB-y	.	.	.	.	.	.	.	.	.
.	4AA	.	.	.	8GL	.	.	.	.	.	.
.	.	.	.	.	8FJ	.	.	.	.	.	.
=9	=9	=9	=9	=9	=9	=9	=9	=9	=9	=9	=9
0FF_	[0AA	[0C	0C_	2c]	[0F	0A_	0F_	0c_	[0a	0f_	0cc_
.	.	.	.	4B-y	.	.	.	.	.	.	.
.	.	.	.	4A	.	.	.	.	.	.	.
.	.	.	.	1A	.	.	.	.	.	.	.
=10	=10	=10	=10	=10	=10	=10	=10	=10	=10	=10	=10
0FF;]	0AA;]	0C;]	0C;]	0A;	0F;]	0A;]	0F;]	0c;]	0a;]	0f;]	0cc;]
=11	=11	=11	=11	=11	=11	=11	=11	=11	=11	=11	=11
1.FF	0C	1.AA	0F	0c	0A	0r	0r	0r	0r	0r	0r
2GG	.	2BB-y	.	.	.	.	.	.	.	.	.
=12	=12	=12	=12	=12	=12	=12	=12	=12	=12	=12	=12
1AA	1C	1C	1E	1c	1A	0r	0r	0r	0r	0r	0r
[1BB-y	[1GG	[1D	1D	1B-y	1G	.	.	.	.	.	.
=13	=13	=13	=13	=13	=13	=13	=13	=13	=13	=13	=13
2BB-]	2GG]	2D]	0D	0B-y	0G	0B-y	0r	0r	0r	0r	0r
2AA	2AA	2C	.	.	.	.	.	.	.	.	.
1GG	1BB-y	2BB-y	.	.	.	.	.	.	.	.	.
.	.	2GG	.	.	.	.	.	.	.	.	.
=14	=14	=14	=14	=14	=14	=14	=14	=14	=14	=14	=14
1FF	1C	2.AA	1F	1r	0c	1A	0r	0r	0r	0r	0r
.	.	4BB-y	.	.	.	.	.	.	.	.	.
1r	1C	1C	1E	1c	.	1G	.	.	.	.	.
=15	=15	=15	=15	=15	=15	=15	=15	=15	=15	=15	=15
1.GG	0BB-y	2GG	0D	1.d	1r	1G	0r	0r	0r	0r	0r
.	.	2BB-y	.	.	.	.	.	.	.	.	.
.	.	2BB-y	.	.	1G	1B-y	.	.	.	.	.
2GG	.	2BB-y	.	2B-y	.	.	.	.	.	.	.
=16	=16	=16	=16	=16	=16	=16	=16	=16	=16	=16	=16
2AA	1r	1FF	[0C	0c	1F	1A	0r	0r	0r	0r	0r
2FF	.	.	.	.	.	.	.	.	.	.	.
1C	1C	1r	.	.	1G	1G	.	.	.	.	.
=17	=17	=17	=17	=17	=17	=17	=17	=17	=17	=17	=17
0FF	2C	1AA	0C]	1.A	1.A	1.F	0c	0f	0cc	0a	0r
.	2C	.	.	.	.	.	.	.	.	.	.
.	1C	2AA	.	.	.	.	.	.	.	.	.
.	.	2AA	.	4G	2B-y	2G	.	.	.	.	.
.	.	.	.	4F	.	.	.	.	.	.	.
=18	=18	=18	=18	=18	=18	=18	=18	=18	=18	=18	=18
0r	0r	1AA	1r	1c	1c	1A	1c	1e	1cc	1a	0r
.	.	1r	1G	1r	[1d	[1B-y	[1G	1d	1b-y	1g	.
=19	=19	=19	=19	=19	=19	=19	=19	=19	=19	=19	=19
0r	0r	0r	2G	0r	2d]	2B-]	2G]	0d	0dd	0g	0b-y
.	.	.	2G	.	2c	2A	2A	.	.	.	.
.	.	.	1G	.	2B-y	1G	1B-y	.	.	.	.
.	.	.	.	.	2G	.	.	.	.	.	.
=20	=20	=20	=20	=20	=20	=20	=20	=20	=20	=20	=20
0r	0r	0r	0r	0r	2.A	1F	1c	1f	1r	0cc	1a
.	.	.	.	.	4B-y	.	.	.	.	.	.
.	.	.	.	.	1c	1r	1c	1e	1cc	.	1g
=21	=21	=21	=21	=21	=21	=21	=21	=21	=21	=21	=21
0r	0r	0r	0r	0r	2G	1.G	0B-y	0d	1.dd	1r	1g
.	.	.	.	.	2B-y	.	.	.	.	.	.
.	.	.	.	.	2B-y	.	.	.	.	1g	1b-y
.	.	.	.	.	2B-y	2G	.	.	2b-y	.	.
=22	=22	=22	=22	=22	=22	=22	=22	=22	=22	=22	=22
0r	0r	0r	0r	0r	1F	2A	1r	[0c	1cc	1f	1a
.	.	.	.	.	.	2F	.	.	.	.	.
.	.	.	.	.	1r	1c	1c	.	[1cc	1g	1g
=23	=23	=23	=23	=23	=23	=23	=23	=23	=23	=23	=23
0r	1F	0r	2r	2.c	0A	0F	2c	0c]	1cc]	1a	[0f
.	.	.	2c	.	.	.	2c	.	.	.	.
.	.	.	.	4B-y	.	.	.	.	.	.	.
.	2.F	.	2c	2A	.	.	1c	.	2r	1a	.
.	.	.	2c	2G	.	.	.	.	2a	.	.
.	4E	.	.	.	.	.	.	.	.	.	.
=24	=24	=24	=24	=24	=24	=24	=24	=24	=24	=24	=24
0BB-y	1D	2r	2d	1F	1B-y	0r	2r	2r	2dd	0r	1f]
.	.	2D	2d	.	.	.	2B-y	2d	2dd	.	.
.	1GG	2D	2d	1G	1B-y	.	2B-y	2g	1b-y	.	2r
.	.	2GG	2d	.	.	.	2d	2g	.	.	2g
=25	=25	=25	=25	=25	=25	=25	=25	=25	=25	=25	=25
0AA	2r	1C	2A	1A	0c	0r	2c	2e	1.r	2r	2cc
.	2C	.	2c	.	.	.	2A	2e	.	2cc	2cc
.	2C	1r	2c	2F	.	.	2A	2f	.	2cc	1a
.	2FF	.	2c	2F	.	.	2c	2f	2a	2a	.
=26	=26	=26	=26	=26	=26	=26	=26	=26	=26	=26	=26
0GG	2.BB-y	2r	2G	0G	0r	0B-y	2B-y	0f	2b-y	2dd	1.r
.	.	2D	2B-y	.	.	.	2.G	.	2b-y	2b-y	.
.	4C	.	.	.	.	.	.	.	.	.	.
.	1D	2D	2B-y	.	.	.	.	.	1g	2b-y	.
.	.	.	.	.	.	.	4A	.	.	.	.
.	.	2GG	2B-y	.	.	.	2B-y	.	.	2g	2d
=27	=27	=27	=27	=27	=27	=27	=27	=27	=27	=27	=27
1.FF	1r	1C	2.F	0A	0F	0A	2r	0r	1r	2.cc	2a
.	.	.	.	.	.	.	2F	.	.	.	2a
.	.	.	4G	.	.	.	.	.	.	8b-yL	.
.	.	.	.	.	.	.	.	.	.	8aJ	.
.	1C	1r	1A	.	.	.	1c	.	1cc	1a	[1f
2FF	.	.	.	.	.	.	.	.	.	.	.
=28	=28	=28	=28	=28	=28	=28	=28	=28	=28	=28	=28
0C	2.E	1C	0r	1r	1G	0G	2c	2r	1cc	1cc	2f]
.	.	.	.	.	.	.	4B-y	2c	.	.	4e
.	4F	.	.	.	.	.	4A	.	.	.	4d
.	2G	2C	.	1c	1G	.	2G	2c	1cc	2cc	1e
.	[2C	2C	.	.	.	.	[2c	2c	.	2cc	.
=29	=29	=29	=29	=29	=29	=29	=29	=29	=29	=29	=29
[0FF	4C]	2.AA	2r	2c	1A	[0F	2c]	0c	[0cc	2cc	[0f
.	4BB-y	.	.	.	.	.	.	.	.	.	.
.	4AA	.	2F	2c	.	.	2F	.	.	2f	.
.	4GG	4BB-y	.	.	.	.	.	.	.	.	.
.	2.AA	1C	1c	2.A	2r	.	1F	.	.	1cc	.
.	.	.	.	.	2F	.	.	.	.	.	.
.	4BB-y	.	.	8GL	.	.	.	.	.	.	.
.	.	.	.	8FJ	.	.	.	.	.	.	.
=30	=30	=30	=30	=30	=30	=30	=30	=30	=30	=30	=30
0FF_	1C	2FF	2.c	2.A	1c	0F_	0r	1.r	0cc_	2.cc	0f_
.	.	1F	.	.	.	.	.	.	.	.	.
.	.	.	4B-y	4B-y	.	.	.	.	.	4b-y	.
.	2FF	.	4A	1c	2.c	.	.	.	.	4a	.
.	.	.	4G	.	.	.	.	.	.	4g	.
.	[2F	4E	[2A	.	.	.	.	2F	.	[2a	.
.	.	4D	.	.	4B-y	.	.	.	.	.	.
=31	=31	=31	=31	=31	=31	=31	=31	=31	=31	=31	=31
0FF_	2F]	2C	2A]	2r	4A	0F]	1.r	1c	0cc_	2a]	0f]
.	.	.	.	.	4G	.	.	.	.	.	.
.	4E	2AA	4G	2F	1A	.	.	.	.	1f	.
.	4D	.	4F	.	.	.	.	.	.	.	.
.	2C	1AA	2F	1c	.	.	.	2.c	.	.	.
.	2AA	.	4E	.	4G	.	2F	.	.	4e	.
.	.	.	4D	.	4F	.	.	4B-y	.	4d	.
=32	=32	=32	=32	=32	=32	=32	=32	=32	=32	=32	=32
0FF]	1AA	1r	1C	2.c	2F	0r	1c	4A	0cc_	1c	2r
.	.	.	.	.	.	.	.	4G	.	.	.
.	.	.	.	.	4E	.	.	1A	.	.	2f
.	.	.	.	4B-y	4D	.	.	.	.	.	.
.	2r	1FF	1r	4A	1C	.	2.c	.	.	2r	1cc
.	.	.	.	4G	.	.	.	.	.	.	.
.	2FF	.	.	[2A	.	.	.	4G	.	2cc	.
.	.	.	.	.	.	.	4B-y	4F	.	.	.
=33	=33	=33	=33	=33	=33	=33	=33	=33	=33	=33	=33
1r	2C	1.FF	1A	2A]	1.c	0r	4A	2F	0cc_	1.cc	2.cc
.	.	.	.	.	.	.	4G	.	.	.	.
.	2C	.	.	4G	.	.	1A	4E	.	.	.
.	.	.	.	4F	.	.	.	4D	.	.	4b-y
1FF	1C	.	[1A	2F	.	.	.	2C	.	.	4a
.	.	.	.	.	.	.	.	.	.	.	4g
.	.	2FF	.	4E	2c	.	4G	[2c	.	2cc	[2a
.	.	.	.	4D	.	.	4F	.	.	.	.
=34	=34	=34	=34	=34	=34	=34	=34	=34	=34	=34	=34
1C	1AA	1FF	2A]	1C	1c	1r	2F	4c]	0cc]	1cc	2a]
.	.	.	.	.	.	.	.	4B-y	.	.	.
.	.	.	2A	.	.	.	4E	4A	.	.	2f
.	.	.	.	.	.	.	4D	4G	.	.	.
2.C	2.AA	1FF	1A	[1c	1c	1F	1C	1A	.	1cc	2f
.	.	.	.	.	.	.	.	.	.	.	2g
4BB-y	4BB-y	.	.	.	.	.	.	.	.	.	.
=35	=35	=35	=35	=35	=35	=35	=35	=35	=35	=35	=35
2.AA	0C	1r	2.A	2c]	0r	1c	1c	0A	0r	0r	0a
.	.	.	.	2F	.	.	.	.	.	.	.
4GG	.	.	4B-y	.	.	.	.	.	.	.	.
1AA	.	1FF	1c	1F	.	1c	1r	.	.	.	.
=36	=36	=36	=36	=36	=36	=36	=36	=36	=36	=36	=36
2.GG	2r	2.BB-y	2.B-y	0r	0r	1d	0r	0B-y	1r	0r	0r
.	2BB-y	.	.	.	.	.	.	.	.	.	.
4AA	.	4C	4A	.	.	.	.	.	.	.	.
1BB-y	2BB-y	2.D	1F	.	.	1d	.	.	1f	.	.
.	2BB-y	.	.	.	.	.	.	.	.	.	.
.	.	4E	.	.	.	.	.	.	.	.	.
=37	=37	=37	=37	=37	=37	=37	=37	=37	=37	=37	=37
1FF	1C	2.F	2r	2r	2r	0c	2r	0A	1cc	2r	1f
.	.	.	2A	2F	2c	.	2f	.	.	2a	.
.	.	4E	.	.	.	.	.	.	.	.	.
1AA	1FF	1C	2A	2F	2c	.	2f	.	1cc	2a	2c
.	.	.	2A	2F	2A	.	2f	.	.	2f	2c
=38	=38	=38	=38	=38	=38	=38	=38	=38	=38	=38	=38
2.GG	2r	2r	2.B-y	2.G	1d	0B-y	1d	2r	1dd	1b-y	1g
.	2BB-y	2D	.	.	.	.	.	1d	.	.	.
4AA	.	.	4A	4F	.	.	.	.	.	.	.
1BB-y	2BB-y	2D	1F	4D	1B-y	.	1d	.	1dd	1b-y	1f
.	.	.	.	4E	.	.	.	.	.	.	.
.	2BB-y	2D	.	[2F	.	.	.	2B-y	.	.	.
=39	=39	=39	=39	=39	=39	=39	=39	=39	=39	=39	=39
2.FF	1C	2.F	2r	4F]	2r	0A	2r	2f	0cc	2r	2r
.	.	.	.	4G	.	.	.	.	.	.	.
.	.	.	2A	4A	2c	.	2f	2c	.	2a	2f
4GG	.	4E	.	4B-y	.	.	.	.	.	.	.
2AA	1FF	2C	2A	2c	2c	.	2f	1c	.	2f	2c
2FF	.	[2F	2A	2F	2A	.	2f	.	.	2f	2c
=40	=40	=40	=40	=40	=40	=40	=40	=40	=40	=40	=40
0GG	2r	2F]	1B-y	2r	1d	0G	1d	0r	0b-y	2b-y	1g
.	2BB-y	4E	.	2B-y	.	.	.	.	.	2g	.
.	.	4D	.	.	.	.	.	.	.	.	.
.	2BB-y	1E	1G	2B-y	1B-y	.	1g	.	.	1g	1g
.	2BB-y	.	.	2G	.	.	.	.	.	.	.
=41	=41	=41	=41	=41	=41	=41	=41	=41	=41	=41	=41
1FF	1C	0F	2r	1c	2r	0A	0c	1.f	1.a	2r	0r
.	.	.	2A	.	2c	.	.	.	.	2cc	.
1AA	1FF	.	2A	1A	2c	.	.	.	.	1cc	.
.	.	.	2A	.	2A	.	.	2f	4g	.	.
.	.	.	.	.	.	.	.	.	4f	.	.
=42	=42	=42	=42	=42	=42	=42	=42	=42	=42	=42	=42
0GG	1.BB-y	2r	1B-y	0r	1d	0r	0g	2d	2.g	1dd	0r
.	.	1D	.	.	.	.	.	2B-y	.	.	.
.	.	.	.	.	.	.	.	.	4a	.	.
.	.	.	1G	.	1B-y	.	.	1d	1b-y	1g	.
.	4AA	4C	.	.	.	.	.	.	.	.	.
.	4GG	4BB-y	.	.	.	.	.	.	.	.	.
=43	=43	=43	=43	=43	=43	=43	=43	=43	=43	=43	=43
2.FF	2.AA	1C	0r	1r	2r	0r	0r	2r	[0a	1cc	1f
.	.	.	.	.	2A	.	.	2c	.	.	.
4GG	4BB-y	.	.	.	.	.	.	.	.	.	.
2.AA	1C	2.FF	.	[1c	1A	.	.	1c	.	2cc	1f
.	.	.	.	.	.	.	.	.	.	2cc	.
4BB-y	.	4GG	.	.	.	.	.	.	.	.	.
=44	=44	=44	=44	=44	=44	=44	=44	=44	=44	=44	=44
2.C	2FF	1AA	0r	2c]	1A	1F	0r	1c	1a]	1cc	1f
.	2AA	.	.	2c	.	.	.	.	.	.	.
4D	.	.	.	.	.	.	.	.	.	.	.
2E	2GG	1r	.	2B-y	1rG	2G	.	1r	1r	1r	1r
[2F	2FF	.	.	2A	.	2A	.	.	.	.	.
=45	=45	=45	=45	=45	=45	=45	=45	=45	=45	=45	=45
2F]	1GG	1BB-y	0r	1G	1r	2B-y	1r	1.r	0r	1r	1r
2E	.	.	.	.	.	2G	.	.	.	.	.
1F	2.FF	2.AA	.	[1A	[1c	1c	1c	.	.	1a	1cc
.	.	.	.	.	.	.	.	2f	.	.	.
.	4GG	4BB-y	.	.	.	.	.	.	.	.	.
=46	=46	=46	=46	=46	=46	=46	=46	=46	=46	=46	=46
2.FF	2.AA	1C	0r	1A]	1c]	0r	1c	2f	0r	2a	2cc
.	.	.	.	.	.	.	.	2f	.	2a	2cc
4GG	4BB-y	.	.	.	.	.	.	.	.	.	.
4AA	2.C	2FF	.	2r	1c	.	1c	1f	.	1a	1cc
4BB-y	.	.	.	.	.	.	.	.	.	.	.
4C	.	2AA	.	2F	.	.	.	.	.	.	.
4AA	4D	.	.	.	.	.	.	.	.	.	.
=47	=47	=47	=47	=47	=47	=47	=47	=47	=47	=47	=47
2BB-y	2E	2GG	0r	2G	2B-y	0r	0r	0r	0r	0r	0r
1C	1F	2FF	.	2A	2A	.	.	.	.	.	.
.	.	1GG	.	2B-y	1G	.	.	.	.	.	.
2BB-y	2E	.	.	2G	.	.	.	.	.	.	.
=48	=48	=48	=48	=48	=48	=48	=48	=48	=48	=48	=48
1C	1F	2.FF	2r	2r	0A	2.c	0c	1.r	0cc	0a	1r
.	.	.	2.F	2.c	.	.	.	.	.	.	.
.	.	4GG	.	.	.	4B-y	.	.	.	.	.
1r	2.FF	2.AA	.	.	.	2.A	.	.	.	.	2.cc
.	.	.	4G	4B-y	.	.	.	.	.	.	.
.	.	.	[2A	[2A	.	.	.	[2F	.	.	.
.	4GG	4BB-y	.	.	.	4G	.	.	.	.	4b-y
=49	=49	=49	=49	=49	=49	=49	=49	=49	=49	=49	=49
[0FF	1AA	1C	4A]	4A]	1A	2F	0c	4F]	1cc	0a	2.a
.	.	.	4B-y	4G	.	.	.	4G	.	.	.
.	.	.	2c	2F	.	2c	.	2.A	.	.	.
.	.	.	.	.	.	.	.	.	.	.	4g
.	2.AA	2.FF	2A	2c	1A	2.c	.	.	[1cc	.	1f
.	.	.	.	.	.	.	.	4B-y	.	.	.
.	.	.	[2F	[2c	.	.	.	[2c	.	.	.
.	4BB-y	4GG	.	.	.	4B-y	.	.	.	.	.
=50	=50	=50	=50	=50	=50	=50	=50	=50	=50	=50	=50
0FF]	1C	0AA	4F]	4c]	0A	2.A	0c	2c]	2cc]	0a	1cc
.	.	.	4G	4B-y	.	.	.	.	.	.	.
.	.	.	2.A	2.A	.	.	.	2F	2b-y	.	.
.	.	.	.	.	.	4G	.	.	.	.	.
.	2.C	.	.	.	.	2F	.	1c	1a	.	2cc
.	.	.	4B-y	4G	.	.	.	.	.	.	.
.	.	.	2c	2F	.	2c	.	.	.	.	2cc
.	4D	.	.	.	.	.	.	.	.	.	.
=51	=51	=51	=51	=51	=51	=51	=51	=51	=51	=51	=51
1C	1E	1.r	2r	1G	0r	1c	2r	1c	1g	0r	1cc
.	.	.	2G	.	.	.	2c	.	.	.	.
1D	1F	.	1d	2r	.	1F	2A	2r	[1f	.	1r
.	.	2BB-y	.	2F	.	.	2B-y	2d	.	.	.
=52	=52	=52	=52	=52	=52	=52	=52	=52	=52	=52	=52
0C	1r	1.E-i	1G	2.c	1c	0G	[0c	2e	2f]	1cc	1g
.	.	.	.	.	.	.	.	2f	4e	.	.
.	.	.	.	8B-yL	.	.	.	.	4d	.	.
.	.	.	.	8AJ	.	.	.	.	.	.	.
.	1C	.	1c	1G	2c	.	.	2g	1e	[1cc	2g
.	.	2C	.	.	2c	.	.	[2c	.	.	2g
=53	=53	=53	=53	=53	=53	=53	=53	=53	=53	=53	=53
0FF	2.AA	2.C	0r	1.r	1c	1F	0c_	4c]	0f	1cc]	[0a
.	.	.	.	.	.	.	.	4B-y	.	.	.
.	.	.	.	.	.	.	.	4A	.	.	.
.	4BB-y	4BB-y	.	.	.	.	.	4G	.	.	.
.	1C	4AA	.	.	2r	1r	.	1A	.	1cc	.
.	.	4GG	.	.	.	.	.	.	.	.	.
.	.	2FF	.	2c	2A	.	.	.	.	.	.
=54	=54	=54	=54	=54	=54	=54	=54	=54	=54	=54	=54
0r	0FF	1F	2r	2.c	2A	0A	0c]	0r	1r	0cc	0a]
.	.	.	2c	.	2A	.	.	.	.	.	.
.	.	.	.	4B-y	.	.	.	.	.	.	.
.	.	2.F	2c	2A	[1F	.	.	.	1a	.	.
.	.	.	2c	2G	.	.	.	.	.	.	.
.	.	4E	.	.	.	.	.	.	.	.	.
=55	=55	=55	=55	=55	=55	=55	=55	=55	=55	=55	=55
0BB-y	2r	1D	2d	1F	1F]	1B-y	2r	2r	2dd	1.r	0r
.	2D	.	2d	.	.	.	2d	2B-y	2dd	.	.
.	2D	1GG	2d	1G	1r	1B-y	2g	2B-y	1b-y	.	.
.	2GG	.	2d	.	.	.	2g	2d	.	2g	.
=56	=56	=56	=56	=56	=56	=56	=56	=56	=56	=56	=56
0AA	1C	2r	2A	1A	0r	0c	2e	2c	1.r	2cc	2r
.	.	2C	2c	.	.	.	2e	2A	.	2cc	2cc
.	1r	2C	2c	2F	.	.	2f	2A	.	1a	2cc
.	.	2FF	2c	2F	.	.	2f	2c	2a	.	2a
=57	=57	=57	=57	=57	=57	=57	=57	=57	=57	=57	=57
0GG	2r	2.BB-y	2G	1G	1B-y	0r	0d	2B-y	2b-y	1.r	2dd
.	2D	.	2B-y	.	.	.	.	2.G	2b-y	.	2b-y
.	.	4C	.	.	.	.	.	.	.	.	.
.	2D	1D	2B-y	2r	2B-y	.	.	.	1g	.	2b-y
.	.	.	.	.	.	.	.	4A	.	.	.
.	2GG	.	2B-y	2G	2B-y	.	.	2B-y	.	2g	2g
=58	=58	=58	=58	=58	=58	=58	=58	=58	=58	=58	=58
1.FF	1C	1r	2.F	2A	0A	0F	0r	2r	1r	2a	2.cc
.	.	.	.	2A	.	.	.	2F	.	2a	.
.	.	.	4G	.	.	.	.	.	.	.	8b-yL
.	.	.	.	.	.	.	.	.	.	.	8aJ
.	1r	1C	1A	1A	.	.	.	1c	1cc	[1f	1a
2FF	.	.	.	.	.	.	.	.	.	.	.
=59	=59	=59	=59	=59	=59	=59	=59	=59	=59	=59	=59
1C	1C	2.E	0r	1r	1G	1G	1c	2.c	1cc	2f]	0r
.	.	.	.	.	.	.	.	.	.	4e	.
.	.	4F	.	.	.	.	.	8B-yL	.	4d	.
.	.	.	.	.	.	.	.	8AJ	.	.	.
1C	2C	2G	.	1c	1G	1G	[1c	2G	1cc	1e	.
.	2C	[2C	.	.	.	.	.	2c	.	.	.
=60	=60	=60	=60	=60	=60	=60	=60	=60	=60	=60	=60
[0FFl	2AA	4C]	1c	2c	[0Fl	[0Al	1c]	[0cl	[0ccl	[0fl	1cc
.	.	4BB-y	.	.	.	.	.	.	.	.	.
.	2FF	4AA	.	2c	.	.	.	.	.	.	.
.	.	4GG	.	.	.	.	.	.	.	.	.
.	2C	2.AA	2c	2A	.	.	1F	.	.	.	2cc
.	2AA	.	2c	2F	.	.	.	.	.	.	2cc
.	.	4BB-y	.	.	.	.	.	.	.	.	.
=61	=61	=61	=61	=61	=61	=61	=61	=61	=61	=61	=61
0FF_	[0AAl	[0Cl	2A	2c	0F_	0A_	[0Fl	0c_	0cc_	0f_	[0ccl
.	.	.	2F	2c	.	.	.	.	.	.	.
.	.	.	2c	2.A	.	.	.	.	.	.	.
.	.	.	2c	.	.	.	.	.	.	.	.
.	.	.	.	4B-y	.	.	.	.	.	.	.
=62	=62	=62	=62	=62	=62	=62	=62	=62	=62	=62	=62
0FF]	0AA]	0C]	0Al	0cl	0F]	0A]	0F]	0c]	0cc]	0f]	0cc]
=63||	=63||	=63||	=63||	=63||	=63||	=63||	=63||	=63||	=63||	=63||	=63||
*M2/1	*M2/1	*M2/1	*M2/1	*M2/1	*M2/1	*M2/1	*M2/1	*M2/1	*M2/1	*M2/1	*M2/1
*met(C2)	*met(C2)	*met(C2)	*met(C2)	*met(C2)	*met(C2)	*met(C2)	*met(C2)	*met(C2)	*met(C2)	*met(C2)	*met(C2)
!!section: Secunda pars: Resurrexit sicut
!!!OMD: Secunda pars: Resurrexit sicut
2.F	0r	1F	0r	0r	0r	0F	0r	1.A	0r	0r	0r
4E	.	.	.	.	.	.	.	.	.	.	.
2.D	.	2.F	.	.	.	.	.	.	.	.	.
.	.	.	.	.	.	.	.	2A	.	.	.
4C	.	4E	.	.	.	.	.	.	.	.	.
=64	=64	=64	=64	=64	=64	=64	=64	=64	=64	=64	=64
2.BB-y	0r	2.D	0r	0B-y	0r	0G	0r	2.B-y	0r	0r	1.b-y
4AA	.	4C	.	.	.	.	.	4c	.	.	.
1GG	.	1BB-y	.	.	.	.	.	2.d	.	.	.
.	.	.	.	.	.	.	.	.	.	.	2b-y
.	.	.	.	.	.	.	.	4e	.	.	.
=65	=65	=65	=65	=65	=65	=65	=65	=65	=65	=65	=65
1.FF	0r	1r	0r	0c	0r	0A	0r	1.f	0r	0r	2.a
.	.	.	.	.	.	.	.	.	.	.	4g
.	.	1C	.	.	.	.	.	.	.	.	[1cc
2FF	.	.	.	.	.	.	.	4e	.	.	.
.	.	.	.	.	.	.	.	4f	.	.	.
=66	=66	=66	=66	=66	=66	=66	=66	=66	=66	=66	=66
0BB-y	0r	1GG	0r	0d	0r	0G	0r	0g	0r	0r	2cc]
.	.	.	.	.	.	.	.	.	.	.	4b-y
.	.	.	.	.	.	.	.	.	.	.	4a
.	.	1GG	.	.	.	.	.	.	.	.	1b-y
=67	=67	=67	=67	=67	=67	=67	=67	=67	=67	=67	=67
[0FF	0r	[0C	1r	[0c	0r	[0A	0r	0r	0r	0a	[0cc
.	.	.	2.c	.	.	.	.	.	.	.	.
.	.	.	4B-y	.	.	.	.	.	.	.	.
=68	=68	=68	=68	=68	=68	=68	=68	=68	=68	=68	=68
1FF]	2.F	1C]	2.A	1c]	0F	0A]	0r	0r	0r	1a	1cc]
.	4E	.	4G	.	.	.	.	.	.	.	.
1r	2.D	1r	2.F	1r	.	.	.	.	.	1a	1r
.	4C	.	4E	.	.	.	.	.	.	.	.
=69	=69	=69	=69	=69	=69	=69	=69	=69	=69	=69	=69
0r	2.BB-y	0r	2.D	0r	0G	0r	0B-y	0r	1.b-y	1.b-y	0r
.	4AA	.	4C	.	.	.	.	.	.	.	.
.	1GG	.	1BB-y	.	.	.	.	.	.	.	.
.	.	.	.	.	.	.	.	.	2b-y	4a	.
.	.	.	.	.	.	.	.	.	.	4g	.
=70	=70	=70	=70	=70	=70	=70	=70	=70	=70	=70	=70
0r	1.FF	0r	1r	0r	0A	0r	0c	0r	2.a	1cc	0r
.	.	.	.	.	.	.	.	.	4g	.	.
.	.	.	1C	.	.	.	.	.	[1cc	1f	.
.	2FF	.	.	.	.	.	.	.	.	.	.
=71	=71	=71	=71	=71	=71	=71	=71	=71	=71	=71	=71
0r	0BB-y	0r	1GG	0r	0G	0r	0d	0r	2cc]	1g	0r
.	.	.	.	.	.	.	.	.	4b-y	.	.
.	.	.	.	.	.	.	.	.	4a	.	.
.	.	.	1GG	.	.	.	.	.	1b-y	1r	.
=72	=72	=72	=72	=72	=72	=72	=72	=72	=72	=72	=72
2r	[0FF	1.r	[0C	[0c	0A	0F	0c	0A	[0cc	1.a	1cc
2FF	.	.	.	.	.	.	.	.	.	.	.
2.AA	.	.	.	.	.	.	.	.	.	.	2.cc
.	.	2FF	.	.	.	.	.	.	.	2a	.
4BB-y	.	.	.	.	.	.	.	.	.	.	4b-y
=73	=73	=73	=73	=73	=73	=73	=73	=73	=73	=73	=73
1C	1FF]	2.AA	0C]	0c]	0r	1F	0r	0A	0cc]	1a	4a
.	.	.	.	.	.	.	.	.	.	.	4g
.	.	.	.	.	.	.	.	.	.	.	2.a
.	.	4BB-y	.	.	.	.	.	.	.	.	.
1FF	1r	1C	.	.	.	1F	.	.	.	1a	.
.	.	.	.	.	.	.	.	.	.	.	4g
.	.	.	.	.	.	.	.	.	.	.	4f
.	.	.	.	.	.	.	.	.	.	.	4e
=74	=74	=74	=74	=74	=74	=74	=74	=74	=74	=74	=74
1BB-y	0r	1D	0r	0F	0r	1.F	0r	0B-y	0r	0r	1d
1D	.	1BB-y	.	.	.	.	.	.	.	.	[1f
.	.	.	.	.	.	4E	.	.	.	.	.
.	.	.	.	.	.	4D	.	.	.	.	.
=75	=75	=75	=75	=75	=75	=75	=75	=75	=75	=75	=75
0C	0r	1.E-i	0r	0G	0r	2.E	0r	0c	0r	0r	2f]
.	.	.	.	.	.	.	.	.	.	.	4e
.	.	.	.	.	.	4F	.	.	.	.	4d
.	.	.	.	.	.	1G	.	.	.	.	1e
.	.	4D	.	.	.	.	.	.	.	.	.
.	.	4C	.	.	.	.	.	.	.	.	.
=76	=76	=76	=76	=76	=76	=76	=76	=76	=76	=76	=76
[0FF	2r	[0C	1.r	0F	0F	[0A	[0c	0c	[0a	1cc	[0f
.	2FF	.	.	.	.	.	.	.	.	.	.
.	2.AA	.	.	.	.	.	.	.	.	2.cc	.
.	.	.	2FF	.	.	.	.	.	.	.	.
.	4BB-y	.	.	.	.	.	.	.	.	4b-y	.
=77	=77	=77	=77	=77	=77	=77	=77	=77	=77	=77	=77
0FF]	1C	0C]	2.AA	0r	1F	0A]	0c]	0r	0a]	4a	0f]
.	.	.	.	.	.	.	.	.	.	4g	.
.	.	.	.	.	.	.	.	.	.	2.a	.
.	.	.	4BB-y	.	.	.	.	.	.	.	.
.	1FF	.	1C	.	1F	.	.	.	.	.	.
.	.	.	.	.	.	.	.	.	.	4g	.
.	.	.	.	.	.	.	.	.	.	4f	.
.	.	.	.	.	.	.	.	.	.	4e	.
=78	=78	=78	=78	=78	=78	=78	=78	=78	=78	=78	=78
0r	1BB-y	0r	1D	0r	1.F	0r	0F	0r	0b-y	1d	0r
.	1D	.	1BB-y	.	.	.	.	.	.	[1f	.
.	.	.	.	.	4E	.	.	.	.	.	.
.	.	.	.	.	4D	.	.	.	.	.	.
=79	=79	=79	=79	=79	=79	=79	=79	=79	=79	=79	=79
0r	0C	0r	1.E-i	1.r	2.E	0r	0G	0r	0cc	2f]	0r
.	.	.	.	.	.	.	.	.	.	4e	.
.	.	.	.	.	4F	.	.	.	.	4d	.
.	.	.	.	.	1G	.	.	.	.	1e	.
.	.	.	4D	2c	.	.	.	.	.	.	.
.	.	.	4C	.	.	.	.	.	.	.	.
=80	=80	=80	=80	=80	=80	=80	=80	=80	=80	=80	=80
2r	0FF	1AA	[0C	2A	2.A	[0c	1F	2r	1cc	[0f	1.a
2FF	.	.	.	2F	.	.	.	2c	.	.	.
.	.	.	.	.	4B-y	.	.	.	.	.	.
2.AA	.	1C	.	2c	1c	.	1r	2A	2.cc	.	.
.	.	.	.	2c	.	.	.	2F	.	.	2a
4BB-y	.	.	.	.	.	.	.	.	4b-y	.	.
=81	=81	=81	=81	=81	=81	=81	=81	=81	=81	=81	=81
1C	2.AA	2.FF	0C]	2A	0F	0c]	1A	2.c	4a	0f_	1a
.	.	.	.	.	.	.	.	.	4g	.	.
.	.	.	.	2F	.	.	.	.	2.a	.	.
.	4BB-y	4GG	.	.	.	.	.	8B-yL	.	.	.
.	.	.	.	.	.	.	.	8AJ	.	.	.
1FF	1C	1AA	.	1c	.	.	1A	1A	.	.	1a
.	.	.	.	.	.	.	.	.	4g	.	.
.	.	.	.	.	.	.	.	.	4f	.	.
.	.	.	.	.	.	.	.	.	4e	.	.
=82	=82	=82	=82	=82	=82	=82	=82	=82	=82	=82	=82
1BB-y	1D	0r	0r	0r	2r	0F	0B-y	0r	1d	0f]	1r
.	.	.	.	.	2F	.	.	.	.	.	.
1D	1BB-y	.	.	.	1D	.	.	.	[1f	.	1f
=83	=83	=83	=83	=83	=83	=83	=83	=83	=83	=83	=83
0C	1.E	1C	1r	1c	1G	0G	0c	1r	2f]	1r	1cc
.	.	.	.	.	.	.	.	.	4e	.	.
.	.	.	.	.	.	.	.	.	4d	.	.
.	.	[1C	1E	2c	1C	.	.	1c	1e	1g	1cc
.	4D	.	.	2c	.	.	.	.	.	.	.
.	4C	.	.	.	.	.	.	.	.	.	.
=84	=84	=84	=84	=84	=84	=84	=84	=84	=84	=84	=84
1.FF	0C	2C]	1.A	1.A	0c	0F	0r	2c	2.f	1a	0cc
.	.	2AA	.	.	.	.	.	2c	.	.	.
.	.	.	.	.	.	.	.	.	4e	.	.
.	.	2AA	.	.	.	.	.	1c	4f	1a	.
.	.	.	.	.	.	.	.	.	4g	.	.
2FF	.	2AA	2F	2A	.	.	.	.	2a	.	.
=85	=85	=85	=85	=85	=85	=85	=85	=85	=85	=85	=85
2BB-y	0r	2D	2.F	2B-y	0r	0r	0r	1d	2d	0f	[0b-y
2BB-y	.	2D	.	2B-y	.	.	.	.	2dd	.	.
.	.	.	4D	.	.	.	.	.	.	.	.
1BB-y	.	1D	1D	1B-y	.	.	.	2d	2dd	.	.
.	.	.	.	.	.	.	.	2d	2dd	.	.
=86	=86	=86	=86	=86	=86	=86	=86	=86	=86	=86	=86
2r	1D	2r	2r	0r	1B-y	1d	2r	1d	[0dd	2r	0b-]
2GG	.	2BB-y	2G	.	.	.	2g	.	.	2b-y	.
2GG	1D	2BB-y	2G	.	2B-y	2d	2g	2r	.	2b-y	.
2GG	.	2BB-y	2G	.	2B-y	2d	2g	2d	.	2b-y	.
=87	=87	=87	=87	=87	=87	=87	=87	=87	=87	=87	=87
2.BB-y	1D	1D	2.F	0r	1B-y	1d	1d	2d	1dd]	1b-y	0r
.	.	.	.	.	.	.	.	2.f	.	.	.
4AA	.	.	4G	.	.	.	.	.	.	.	.
1FF	2.F	2r	2.A	.	1A	2r	1r	.	2r	2r	.
.	.	.	.	.	.	.	.	4e	.	.	.
.	.	2AA	.	.	.	2c	.	2c	2a	2cc	.
.	4E	.	8GL	.	.	.	.	.	.	.	.
.	.	.	8FJ	.	.	.	.	.	.	.	.
=88	=88	=88	=88	=88	=88	=88	=88	=88	=88	=88	=88
2r	1C	2AA	1.E	0r	2A	2c	2r	1c	2a	2cc	0r
2AA	.	2AA	.	.	2A	2c	2e	.	2a	2cc	.
2AA	2r	1C	.	.	1A	[1c	1e	2e	1a	[1cc	.
2AA	2E	.	2C	.	.	.	.	2e	.	.	.
=89	=89	=89	=89	=89	=89	=89	=89	=89	=89	=89	=89
2.C	2E	1.r	1C	1r	1G	1c]	1e	2e	2r	1cc]	1r
.	2E	.	.	.	.	.	.	2.g	2g	.	.
4BB-y	.	.	.	.	.	.	.	.	.	.	.
2GG	2.G	.	2r	1d	1G	2r	2d	.	2g	2r	1b-y
.	.	.	.	.	.	.	.	4f	.	.	.
2GG	.	2BB-y	2G	.	.	2B-y	2g	2d	2g	2dd	.
.	4F	.	.	.	.	.	.	.	.	.	.
=90	=90	=90	=90	=90	=90	=90	=90	=90	=90	=90	=90
2GG	2D	2BB-y	2.G	2d	1G	2B-y	2g	1d	1b-y	2dd	2b-y
2GG	2D	2BB-y	.	2d	.	2B-y	2g	.	.	2dd	2b-y
.	.	.	4F	.	.	.	.	.	.	.	.
2.BB-y	2D	1D	4D	1d	[1F	1B-y	1d	2d	2r	1dd	1b-y
.	.	.	4E	.	.	.	.	.	.	.	.
.	2D	.	4F	.	.	.	.	[2f	2f	.	.
4AA	.	.	4G	.	.	.	.	.	.	.	.
=91	=91	=91	=91	=91	=91	=91	=91	=91	=91	=91	=91
1FF	2.F	2r	2.A	2r	1F]	2r	1.r	4f]	2f	2r	1a
.	.	.	.	.	.	.	.	4e	.	.	.
.	.	2AA	.	2A	.	2c	.	2c	2f	2cc	.
.	4E	.	8GL	.	.	.	.	.	.	.	.
.	.	.	8FJ	.	.	.	.	.	.	.	.
2r	1C	2AA	[1E	2A	1r	2c	.	1c	1cc	2cc	2a
2AA	.	2AA	.	2A	.	2c	2e	.	.	2cc	2a
=92	=92	=92	=92	=92	=92	=92	=92	=92	=92	=92	=92
2AA	2r	1C	2E]	1A	0r	0c	1e	2e	0r	0cc	1a
2AA	2E	.	2C	.	.	.	.	2e	.	.	.
2.C	2E	1r	1C	1r	.	.	1e	2e	.	.	1g
.	2E	.	.	.	.	.	.	[2g	.	.	.
4BB-y	.	.	.	.	.	.	.	.	.	.	.
=93	=93	=93	=93	=93	=93	=93	=93	=93	=93	=93	=93
2GG	2.G	2r	2r	1d	1B-y	2r	2d	4g]	2r	2r	2g
.	.	.	.	.	.	.	.	4f	.	.	.
2GG	.	2BB-y	2G	.	.	2G	2g	2d	2b-y	2dd	2g
.	4F	.	.	.	.	.	.	.	.	.	.
2GG	2D	2BB-y	2.G	2d	2B-y	2G	2g	1d	2b-y	2dd	1g
2GG	2D	2BB-y	.	2d	2B-y	2G	2g	.	2b-y	2dd	.
.	.	.	4F	.	.	.	.	.	.	.	.
=94	=94	=94	=94	=94	=94	=94	=94	=94	=94	=94	=94
2.BB-y	2D	1D	4D	1d	1B-y	1d	1d	2d	1b-y	1dd	1f
.	.	.	4E	.	.	.	.	.	.	.	.
.	2D	.	4F	.	.	.	.	2.f	.	.	.
4AA	.	.	4G	.	.	.	.	.	.	.	.
1FF	2.F	2r	4A	2r	1A	1r	1c	.	1r	1r	2f
.	.	.	4B-y	.	.	.	.	4e	.	.	.
.	.	2C	[2c	2F	.	.	.	2c	.	.	2f
.	4E	.	.	.	.	.	.	.	.	.	.
=95	=95	=95	=95	=95	=95	=95	=95	=95	=95	=95	=95
0C	2.C	1E	2c]	1.G	1G	1r	2c	1c	2r	1cc	2f
.	.	.	4B-y	.	.	.	2c	.	2g	.	4e
.	4D	.	4A	.	.	.	.	.	.	.	4d
.	1E	[1C	1G	.	1G	1c	1c	1r	2g	1cc	1e
.	.	.	.	2C	.	.	.	.	2g	.	.
=96	=96	=96	=96	=96	=96	=96	=96	=96	=96	=96	=96
[0FF	2.AA	2C]	1r	2C	[0F	2A	0r	0r	[0a	1cc	[0f
.	.	4BB-y	.	2.c	.	4G	.	.	.	.	.
.	4BB-y	4AA	.	.	.	4F	.	.	.	.	.
.	2.C	[1AA	1c	.	.	2.A	.	.	.	1cc	.
.	.	.	.	4B-y	.	.	.	.	.	.	.
.	.	.	.	4A	.	.	.	.	.	.	.
.	4BB-y	.	.	4G	.	4B-y	.	.	.	.	.
=97	=97	=97	=97	=97	=97	=97	=97	=97	=97	=97	=97
0FF]	4AA	2AA]	2F	1A	0F]	1.c	0r	0r	0a]	1r	0f]
.	4GG	.	.	.	.	.	.	.	.	.	.
.	2AA	2FF	2F	.	.	.	.	.	.	.	.
.	2FF	1C	2.A	[1c	.	.	.	.	.	1cc	.
.	2F	.	.	.	.	4B-y	.	.	.	.	.
.	.	.	8GL	.	.	4A	.	.	.	.	.
.	.	.	8FJ	.	.	.	.	.	.	.	.
=98	=98	=98	=98	=98	=98	=98	=98	=98	=98	=98	=98
0C	2G	1r	2E	2c]	0r	2G	0r	0r	0r	1cc	0r
.	1F	.	2F	4B-y	.	2C	.	.	.	.	.
.	.	.	.	4A	.	.	.	.	.	.	.
.	.	[1C	2G	2G	.	1c	.	.	.	1cc	.
.	2E	.	2G	2C	.	.	.	.	.	.	.
=99	=99	=99	=99	=99	=99	=99	=99	=99	=99	=99	=99
0FF	0F	2C]	1A	0c	0r	0A	0r	0r	0r	0cc	0r
.	.	2AA	.	.	.	.	.	.	.	.	.
.	.	1AA	1r	.	.	.	.	.	.	.	.
=100	=100	=100	=100	=100	=100	=100	=100	=100	=100	=100	=100
0GG	1.BB-y	2.D	0G	0B-y	0r	0r	0r	0r	0r	0r	0r
.	.	4C	.	.	.	.	.	.	.	.	.
.	.	2BB-y	.	.	.	.	.	.	.	.	.
.	2BB-y	4AA	.	.	.	.	.	.	.	.	.
.	.	4GG	.	.	.	.	.	.	.	.	.
=101	=101	=101	=101	=101	=101	=101	=101	=101	=101	=101	=101
0AA	2.C	1FF	0C	0A	0r	0c	0r	0r	0r	0r	0r
.	4D	.	.	.	.	.	.	.	.	.	.
.	1E	1r	.	.	.	.	.	.	.	.	.
=102	=102	=102	=102	=102	=102	=102	=102	=102	=102	=102	=102
1.BB-y	1D	1r	0D	1.d	0r	0F	0r	0r	0r	0r	0r
.	1r	1F	.	.	.	.	.	.	.	.	.
2AA	.	.	.	2c	.	.	.	.	.	.	.
=103	=103	=103	=103	=103	=103	=103	=103	=103	=103	=103	=103
2.GG	0r	1.BB-y	0E-X	2.B-y	0r	0G	0r	0r	0r	0r	0r
4FF	.	.	.	4A	.	.	.	.	.	.	.
1GG	.	.	.	1B-y	.	.	.	.	.	.	.
.	.	2BB-y	.	.	.	.	.	.	.	.	.
=104	=104	=104	=104	=104	=104	=104	=104	=104	=104	=104	=104
0FF	1AA	2C	0F	1.r	0r	0A	0r	0r	0r	0r	0r
.	.	2D	.	.	.	.	.	.	.	.	.
.	1AA	1C	.	.	.	.	.	.	.	.	.
.	.	.	.	2A	.	.	.	.	.	.	.
=105	=105	=105	=105	=105	=105	=105	=105	=105	=105	=105	=105
0r	2.GG	0BB-y	0G	1.d	0r	0B-y	0r	0r	0r	0r	0r
.	4FF	.	.	.	.	.	.	.	.	.	.
.	1GG	.	.	.	.	.	.	.	.	.	.
.	.	.	.	2G	.	.	.	.	.	.	.
=106	=106	=106	=106	=106	=106	=106	=106	=106	=106	=106	=106
1FF	2.AA	[0C	1F	0c	0r	0A	0r	0r	0r	0r	0r
.	4BB-y	.	.	.	.	.	.	.	.	.	.
1FF	2C	.	[1F	.	.	.	.	.	.	.	.
.	2D	.	.	.	.	.	.	.	.	.	.
=107	=107	=107	=107	=107	=107	=107	=107	=107	=107	=107	=107
1C	2E	0C_	2F]	0c	0r	0G	1.r	1r	1r	0r	0r
.	2F	.	4E	.	.	.	.	.	.	.	.
.	.	.	4D	.	.	.	.	.	.	.	.
1C	2G	.	1E	.	.	.	.	1c	1g	.	.
.	2C	.	.	.	.	.	2c	.	.	.	.
=108	=108	=108	=108	=108	=108	=108	=108	=108	=108	=108	=108
[0FF	1C	0C_	0F	0r	[0c	[0F	2c	2.A	2a	2r	1r
.	.	.	.	.	.	.	2A	.	4g	2.cc	.
.	.	.	.	.	.	.	.	4B-y	4f	.	.
.	1AA	.	.	.	.	.	[1A	2.c	2.a	.	1cc
.	.	.	.	.	.	.	.	.	.	4b-y	.
.	.	.	.	.	.	.	.	.	.	4a	.
.	.	.	.	.	.	.	.	4B-y	4b-y	4g	.
=109	=109	=109	=109	=109	=109	=109	=109	=109	=109	=109	=109
0FF]	0AA	0C]	0r	0r	0c_	0F]	2A]	4A	1.cc	1a	2f
.	.	.	.	.	.	.	.	4G	.	.	.
.	.	.	.	.	.	.	2F	2A	.	.	2f
.	.	.	.	.	.	.	1c	2F	.	[1cc	2a
.	.	.	.	.	.	.	.	2f	4b-y	.	4g
.	.	.	.	.	.	.	.	.	4a	.	4f
=110	=110	=110	=110	=110	=110	=110	=110	=110	=110	=110	=110
0r	0r	0r	0r	0r	0c]	0r	1r	2g	2g	2cc]	2e
.	.	.	.	.	.	.	.	1f	2c	4b-y	2f
.	.	.	.	.	.	.	.	.	.	4a	.
.	.	.	.	.	.	.	[1c	.	1cc	2g	1g
.	.	.	.	.	.	.	.	2e	.	2c	.
=111	=111	=111	=111	=111	=111	=111	=111	=111	=111	=111	=111
0r	0r	0r	0r	0r	0F	0r	2c]	0f	0a	0cc	1a
.	.	.	.	.	.	.	2A	.	.	.	.
.	.	.	.	.	.	.	1A	.	.	.	1r
=112	=112	=112	=112	=112	=112	=112	=112	=112	=112	=112	=112
0r	0r	0r	0r	0r	0G	0r	2.d	1B-y	0r	0b-y	0g
.	.	.	.	.	.	.	4c	.	.	.	.
.	.	.	.	.	.	.	2B-y	2B-y	.	.	.
.	.	.	.	.	.	.	4A	2B-y	.	.	.
.	.	.	.	.	.	.	4G	.	.	.	.
=113	=113	=113	=113	=113	=113	=113	=113	=113	=113	=113	=113
0r	0r	0r	0r	0r	0A	0r	1F	2.c	0cc	0a	0c
.	.	.	.	.	.	.	.	4d	.	.	.
.	.	.	.	.	.	.	1r	1e	.	.	.
=114	=114	=114	=114	=114	=114	=114	=114	=114	=114	=114	=114
0r	0r	0r	0r	0r	1.B-y	0r	1r	1d	0f	1.dd	0d
.	.	.	.	.	.	.	1f	1r	.	.	.
.	.	.	.	.	2A	.	.	.	.	2cc	.
=115	=115	=115	=115	=115	=115	=115	=115	=115	=115	=115	=115
0r	0r	0r	0r	0r	2.G	0r	1.B-y	0r	0g	2.b-y	0e-X
.	.	.	.	.	4F	.	.	.	.	4a	.
.	.	.	.	.	1G	.	.	.	.	1b-y	.
.	.	.	.	.	.	.	2B-y	.	.	.	.
=116	=116	=116	=116	=116	=116	=116	=116	=116	=116	=116	=116
0r	0r	0r	0r	0r	0F	0r	2.c	1A	0a	1.r	0f
.	.	.	.	.	.	.	4d	.	.	.	.
.	.	.	.	.	.	.	1c	1A	.	.	.
.	.	.	.	.	.	.	.	.	.	2a	.
=117	=117	=117	=117	=117	=117	=117	=117	=117	=117	=117	=117
0r	0r	0r	0r	0r	0r	0r	0B-y	2.G	0b-y	1.dd	0g
.	.	.	.	.	.	.	.	4F	.	.	.
.	.	.	.	.	.	.	.	1G	.	.	.
.	.	.	.	.	.	.	.	.	.	2g	.
=118	=118	=118	=118	=118	=118	=118	=118	=118	=118	=118	=118
0r	0r	0r	0r	0r	1F	0r	[0c	2.A	0a	1cc	1f
.	.	.	.	.	.	.	.	4B-y	.	.	.
.	.	.	.	.	2F	.	.	2c	.	2r	[1f
.	.	.	.	.	2F	.	.	2d	.	2cc	.
=119	=119	=119	=119	=119	=119	=119	=119	=119	=119	=119	=119
0r	0r	0r	1C	0r	1G	0r	0c]	2e	0g	2cc	2f]
.	.	.	.	.	.	.	.	2f	.	2cc	4e
.	.	.	.	.	.	.	.	.	.	.	4d
.	.	.	1C	.	1r	.	.	1g	.	1cc	1e
=120	=120	=120	=120	=120	=120	=120	=120	=120	=120	=120	=120
1.FF	1r	0r	2.F	2r	2F	1.r	0c	1.a	[0f	0a	1r
.	.	.	.	2F	2.A	.	.	.	.	.	.
.	.	.	4G	.	.	.	.	.	.	.	.
.	[1FF	.	2.A	2F	.	.	.	.	.	.	[1cc
.	.	.	.	.	4B-y	.	.	.	.	.	.
2FF	.	.	.	[2A	[2c	2F	.	[2f	.	.	.
.	.	.	4B-y	.	.	.	.	.	.	.	.
=121	=121	=121	=121	=121	=121	=121	=121	=121	=121	=121	=121
2.AA	2FF]	1.FF	1c	4A]	2c]	2F	2r	2f]	1f]	1a	1cc]
.	.	.	.	4B-y	.	.	.	.	.	.	.
.	2FF	.	.	1c	4B-y	2.A	2F	4e	.	.	.
4BB-y	.	.	.	.	4A	.	.	4d	.	.	.
1C	2.AA	.	[1F	.	1A	.	2F	1c	2r	1a	1cc
.	.	.	.	.	.	4B-y	.	.	.	.	.
.	.	2FF	.	4B-y	.	[2c	[2A	.	2f	.	.
.	4BB-y	.	.	4A	.	.	.	.	.	.	.
=122	=122	=122	=122	=122	=122	=122	=122	=122	=122	=122	=122
1FF	1C	2.AA	1F]	1A	2r	2c]	4A]	1.c	2f	1.a	1cc
.	.	.	.	.	.	.	4B-y	.	.	.	.
.	.	.	.	.	2F	4B-y	2c	.	2.a	.	.
.	.	4BB-y	.	.	.	4A	.	.	.	.	.
2r	1FF	1C	2r	2r	1c	[1A	2c	.	.	.	[1cc
.	.	.	.	.	.	.	.	.	4b-y	.	.
[2F	.	.	2C	2F	.	.	4B-y	2c	2cc	4g	.
.	.	.	.	.	.	.	4A	.	.	4f	.
=123	=123	=123	=123	=123	=123	=123	=123	=123	=123	=123	=123
2F]	2r	0FF	2.F	2.A	1c	2A]	0F	1c	0a	0f	2cc]
4E	2F	.	.	.	.	4G	.	.	.	.	2cc
4D	.	.	4G	4B-y	.	4F	.	.	.	.	.
2C	1F	.	4A	2c	1A	1F	.	1c	.	.	1cc
.	.	.	4G	.	.	.	.	.	.	.	.
2AA	.	.	[2A	2c	.	.	.	.	.	.	.
=124	=124	=124	=124	=124	=124	=124	=124	=124	=124	=124	=124
1BB-y	1D	1r	2A]	1d	1.r	0r	0r	0r	0r	0r	1b-y
.	.	.	2G	.	.	.	.	.	.	.	.
1AA	2E	1C	1A	2c	.	.	.	.	.	.	1cc
.	2F	.	.	2A	2A	.	.	.	.	.	.
=125	=125	=125	=125	=125	=125	=125	=125	=125	=125	=125	=125
1r	1G	2GG	2r	1B-y	1d	2r	1r	1.r	1r	1r	1r
.	.	2GG	2D	.	.	2B-y	.	.	.	.	.
[1FF	2.C	2AA	2.F	1A	[1c	2c	2F	.	1f	1cc	1a
.	.	2FF	.	.	.	2A	[2A	2F	.	.	.
.	4BB-y	.	4G	.	.	.	.	.	.	.	.
=126	=126	=126	=126	=126	=126	=126	=126	=126	=126	=126	=126
2FF]	2AA	2C	2.A	1c	2c]	2.A	4A]	2F	2f	2cc	2a
.	.	.	.	.	.	.	4B-y	.	.	.	.
2FF	2FF	2C	.	.	4B-y	.	2c	2.A	2f	2cc	2a
.	.	.	4B-y	.	4A	4G	.	.	.	.	.
1FF	2C	1AA	1c	2c	1A	1F	1F	.	1a	1cc	1f
.	.	.	.	.	.	.	.	4B-y	.	.	.
.	2AA	.	.	2c	.	.	.	2c	.	.	.
=127	=127	=127	=127	=127	=127	=127	=127	=127	=127	=127	=127
1GG	2BB-y	2r	1.r	1B-y	2r	2r	1r	1G	1g	1r	0r
.	2GG	2D	.	.	2G	2B-y	.	.	.	.	.
1FF	1C	2F	.	1A	2A	2c	1c	1r	2c	[1cc	.
.	.	2C	2C	.	2F	2A	.	.	[2f	.	.
=128	=128	=128	=128	=128	=128	=128	=128	=128	=128	=128	=128
0C	1r	1C	2.E	1G	1G	2c	1c	1G	2f]	1cc]	2r
.	.	.	.	.	.	4B-y	.	.	4e	.	2g
.	.	.	4F	.	.	4A	.	.	4d	.	.
.	1C	1r	2G	1G	1E	1G	1c	2c	1e	1cc	2g
.	.	.	2C	.	.	.	.	2c	.	.	2g
=129	=129	=129	=129	=129	=129	=129	=129	=129	=129	=129	=129
0FF	2C	1C	1C	0F	1A	0r	[0c	2.A	[0f	0cc	1a
.	2C	.	.	.	.	.	.	.	.	.	.
.	.	.	.	.	.	.	.	4G	.	.	.
.	2.AA	2C	2r	.	1r	.	.	4A	.	.	[1a
.	.	.	.	.	.	.	.	4F	.	.	.
.	.	2C	2C	.	.	.	.	[2f	.	.	.
.	4BB-y	.	.	.	.	.	.	.	.	.	.
=130	=130	=130	=130	=130	=130	=130	=130	=130	=130	=130	=130
1.FF	1C	2.AA	2.F	2r	2F	1.r	0c]	2f]	0f]	1.cc	1a]
.	.	.	.	2F	2.A	.	.	4e	.	.	.
.	.	4BB-y	4G	.	.	.	.	4d	.	.	.
.	[1FF	1C	2.A	2F	.	.	.	1c	.	.	1a
.	.	.	.	.	4B-y	.	.	.	.	.	.
2FF	.	.	.	[2A	[2c	2F	.	.	.	2cc	.
.	.	.	4B-y	.	.	.	.	.	.	.	.
=131	=131	=131	=131	=131	=131	=131	=131	=131	=131	=131	=131
2.AA	2FF]	1.FF	1c	4A]	2c]	2F	2r	0c	1f	1cc	1.a
.	.	.	.	4B-y	.	.	.	.	.	.	.
.	2FF	.	.	1c	4B-y	2.A	2F	.	.	.	.
4BB-y	.	.	.	.	4A	.	.	.	.	.	.
1C	2.AA	.	[1F	.	1A	.	2F	.	2r	1cc	.
.	.	.	.	.	.	4B-y	.	.	.	.	.
.	.	2FF	.	4B-y	.	[2c	[2A	.	2f	.	4g
.	4BB-y	.	.	4A	.	.	.	.	.	.	4f
=132	=132	=132	=132	=132	=132	=132	=132	=132	=132	=132	=132
1FF	1C	2.AA	1F]	1A	2r	2c]	4A]	1c	2f	0cc	0f
.	.	.	.	.	.	.	4B-y	.	.	.	.
.	.	.	.	.	2F	4B-y	1c	.	2.a	.	.
.	.	4BB-y	.	.	.	4A	.	.	.	.	.
2r	1FF	1C	2r	2r	1c	[1A	.	1c	.	.	.
.	.	.	.	.	.	.	.	.	4b-y	.	.
[2F	.	.	2C	2F	.	.	4B-y	.	2cc	.	.
.	.	.	.	.	.	.	4A	.	.	.	.
=133	=133	=133	=133	=133	=133	=133	=133	=133	=133	=133	=133
2F]	2r	0FF	2.F	2.A	1c	2A]	0A	0c	0a	1cc	0r
4E	2F	.	.	.	.	4G	.	.	.	.	.
4D	.	.	4G	4B-y	.	4F	.	.	.	.	.
2C	1F	.	4A	2c	1A	1F	.	.	.	1cc	.
.	.	.	4G	.	.	.	.	.	.	.	.
2AA	.	.	[2A	[2d	.	.	.	.	.	.	.
=134	=134	=134	=134	=134	=134	=134	=134	=134	=134	=134	=134
1BB-y	1D	1r	2A]	2d]	1.r	0r	0r	0r	0r	1b-y	0r
.	.	.	2G	2c	.	.	.	.	.	.	.
1AA	2E	1C	1A	1A	.	.	.	.	.	1cc	.
.	2F	.	.	.	2A	.	.	.	.	.	.
=135	=135	=135	=135	=135	=135	=135	=135	=135	=135	=135	=135
1r	1G	2GG	2r	1B-y	1d	2r	1r	1.r	1r	1r	1r
.	.	2GG	2D	.	.	2B-y	.	.	.	.	.
[1FF	2.C	2AA	2.F	1A	[1c	2c	2F	.	1f	1a	1cc
.	.	2FF	.	.	.	2A	[2A	2F	.	.	.
.	4BB-y	.	4G	.	.	.	.	.	.	.	.
=136	=136	=136	=136	=136	=136	=136	=136	=136	=136	=136	=136
2FF]	2AA	2C	2.A	1c	2c]	2.A	4A]	2F	2f	2a	2cc
.	.	.	.	.	.	.	4B-y	.	.	.	.
2FF	2FF	2C	.	.	4B-y	.	2c	2.A	2f	2a	2cc
.	.	.	4B-y	.	4A	4G	.	.	.	.	.
1FF	2C	1AA	1c	2c	1A	1F	1F	.	1a	1f	1cc
.	.	.	.	.	.	.	.	4B-y	.	.	.
.	2AA	.	.	2c	.	.	.	2c	.	.	.
=137	=137	=137	=137	=137	=137	=137	=137	=137	=137	=137	=137
1GG	2BB-y	2r	1.r	1B-y	2r	2r	1r	1G	1g	2r	1r
.	2GG	2D	.	.	2G	2B-y	.	.	.	2g	.
1FF	1C	2F	.	1A	2A	2c	1c	1r	2c	2g	1cc
.	.	2C	2C	.	2F	2A	.	.	[2f	2g	.
=138	=138	=138	=138	=138	=138	=138	=138	=138	=138	=138	=138
1C	1r	1C	2.E	1G	1G	2c	2c	1G	2f]	[0al	1cc
.	.	.	.	.	.	4B-y	2c	.	4e	.	.
.	.	.	4F	.	.	4A	.	.	4d	.	.
1C	1C	1r	2G	1G	1E	1G	1c	2c	1e	.	1cc
.	.	.	2C	.	.	.	.	[2c	.	.	.
=139	=139	=139	=139	=139	=139	=139	=139	=139	=139	=139	=139
[0FFl	2C	1C	[0Cl	[0Fl	2A	0r	1c	4c]	[0fl	0a_	[0ccl
.	.	.	.	.	.	.	.	4B-y	.	.	.
.	2C	.	.	.	2A	.	.	4A	.	.	.
.	.	.	.	.	.	.	.	4G	.	.	.
.	2.AA	2C	.	.	1A	.	2.F	4A	.	.	.
.	.	.	.	.	.	.	.	4F	.	.	.
.	.	2C	.	.	.	.	.	[2f	.	.	.
.	4BB-y	.	.	.	.	.	4F	.	.	.	.
=140	=140	=140	=140	=140	=140	=140	=140	=140	=140	=140	=140
0FF_	[0Cl	2AA	0C_	0F_	1r	1c	[0Fl	2f]	0f_	0a_	0cc_
.	.	2FF	.	.	.	.	.	4e	.	.	.
.	.	.	.	.	.	.	.	4d	.	.	.
.	.	2C	.	.	1c	2c	.	1c	.	.	.
.	.	2AA	.	.	.	2c	.	.	.	.	.
=141	=141	=141	=141	=141	=141	=141	=141	=141	=141	=141	=141
0FF_	0C_	[0AAl	0C_	0F_	2c	2A	0F_	[0cl	0f_	0a_	0cc_
.	.	.	.	.	2c	2F	.	.	.	.	.
.	.	.	.	.	2A	2c	.	.	.	.	.
.	.	.	.	.	2F	2c	.	.	.	.	.
=142	=142	=142	=142	=142	=142	=142	=142	=142	=142	=142	=142
0FF_	0C_	0AA_	0C_	0F_	2c	[0Al	0F_	0c_	0f_	0a_	0cc_
.	.	.	.	.	2c	.	.	.	.	.	.
.	.	.	.	.	2.A	.	.	.	.	.	.
.	.	.	.	.	4B-y	.	.	.	.	.	.
=143	=143	=143	=143	=143	=143	=143	=143	=143	=143	=143	=143
0FF]	0C]	0AA]	0C]	0F]	0cl	0A]	0F]	0c]	0f]	0a]	0cc]
==	==	==	==	==	==	==	==	==	==	==	==
*-	*-	*-	*-	*-	*-	*-	*-	*-	*-	*-	*-
!!!system-decoration: s1,s2,s3,s4,s5,s6,s7,s8,s9,s10,s11,s12
!!!RDF**kern: i = editorial accidental
!!!RDF**kern: l = terminal long
!!!ENC: Janosch Umbreit
!!!END: 2026/06/03
!!!EED: Benjamin Ory
!!!EEV: 2026/06/09
!!!YEC: Copyright 2026 Benjamin Ory, All Rights Reserved
!!!ONB: Translated from MusicXML on 2026/06/09
